public/logo.svg

<svg viewBox="0 0 150 80" xmlns="http://www.w3.org/2000/svg" xmlns:xlink="http://www.w3.org/1999/xlink"><linearGradient id="a" gradientUnits="userSpaceOnUse" x1="26.73" x2="41.52" y1="73.65" y2="35.08"><stop offset="0" stop-color="#193154"/><stop offset="1" stop-color="#e51947"/></linearGradient><linearGradient id="b" x1="27.57" x2="42.36" xlink:href="#a" y1="73.97" y2="35.4"/><linearGradient id="c" x1="25.48" x2="40.26" xlink:href="#a" y1="73.17" y2="34.6"/><g fill="#e41446"><path d="m68.18 25.76a4.66 4.66 0 0 1 3.71 1.76v-5.39h2.91v15.16h-2.91v-1.68a4.29 4.29 0 0 1 -3.73 1.87c-2.89 0-5.19-2.36-5.19-5.9s2.3-5.82 5.21-5.82zm.72 2.52a3 3 0 0 0 -3 3.3 3.11 3.11 0 0 0 3 3.38 3.06 3.06 0 0 0 3-3.34 3.06 3.06 0 0 0 -3-3.34z"/><path d="m77.3 22.91a1.76 1.76 0 1 1 1.76 1.68 1.68 1.68 0 0 1 -1.76-1.68zm.31 3h2.86v11.38h-2.86z"/><path d="m87.75 25.76a4.46 4.46 0 0 1 3.75 1.8v-1.62h2.89v11.44c0 3.07-1.89 5.51-5.62 5.51-3.19 0-5.43-1.6-5.71-4.2h2.84a2.68 2.68 0 0 0 2.79 1.7c1.58 0 2.81-.9 2.81-3v-1.78a4.47 4.47 0 0 1 -3.75 1.87c-2.89 0-5.19-2.36-5.19-5.9s2.3-5.82 5.19-5.82zm.74 2.52a3 3 0 0 0 -3 3.3 3.11 3.11 0 0 0 3 3.38 3.06 3.06 0 0 0 3-3.34 3.06 3.06 0 0 0 -3-3.34z"/><path d="m96.89 22.91a1.76 1.76 0 1 1 1.76 1.68 1.68 1.68 0 0 1 -1.76-1.68zm.3 3h2.87v11.38h-2.87z"/><path d="m103.34 28.3h-1.34v-2.36h1.35v-2.81h2.89v2.81h2.54v2.36h-2.54v5.49c0 .76.31 1.09 1.21 1.09h1.33v2.41h-1.78c-2.17 0-3.63-.92-3.63-3.52z"/><path d="m115.29 25.76a4.51 4.51 0 0 1 3.75 1.8v-1.62h2.89v11.35h-2.93v-1.66a4.47 4.47 0 0 1 -3.77 1.85c-2.87 0-5.17-2.36-5.17-5.9s2.34-5.82 5.23-5.82zm.74 2.52a3 3 0 0 0 -3 3.3 3.11 3.11 0 0 0 2.97 3.42 3.06 3.06 0 0 0 3-3.34 3.06 3.06 0 0 0 -3-3.38z"/><path d="m124.74 22.13h2.86v15.16h-2.86z"/><path d="m68.06 56.91c-2.85 0-4.84-1.66-5-3.77h2.94a1.88 1.88 0 0 0 2 1.52c1.12 0 1.74-.51 1.74-1.17 0-2-6.42-.74-6.42-4.9 0-1.88 1.68-3.4 4.49-3.4s4.41 1.5 4.57 3.75h-2.71a1.68 1.68 0 0 0 -1.9-1.47c-1.07 0-1.62.43-1.62 1.08 0 2.07 6.29.78 6.37 4.94 0 1.95-1.7 3.42-4.46 3.42z"/><path d="m75.33 47.73h-1.33v-2.36h1.35v-2.8h2.89v2.8h2.54v2.36h-2.56v5.49c0 .76.31 1.09 1.21 1.09h1.33v2.42h-1.76c-2.17 0-3.63-.92-3.63-3.53z"/><path d="m87.28 45.19a4.51 4.51 0 0 1 3.72 1.81v-1.63h2.89v11.36h-2.89v-1.66a4.49 4.49 0 0 1 -3.77 1.84c-2.87 0-5.17-2.35-5.17-5.9s2.33-5.82 5.22-5.82zm.72 2.52a3 3 0 0 0 -3 3.29 3.11 3.11 0 0 0 3 3.38 3.06 3.06 0 0 0 3-3.34 3.06 3.06 0 0 0 -3-3.33z"/><path d="m101.17 45.19a4.44 4.44 0 0 1 3.75 1.8v-1.62h2.89v11.44c0 3.07-1.88 5.51-5.61 5.51-3.2 0-5.43-1.6-5.72-4.2h2.85a2.65 2.65 0 0 0 2.78 1.7c1.58 0 2.81-.9 2.81-3v-1.77a4.48 4.48 0 0 1 -3.75 1.86c-2.89 0-5.17-2.35-5.17-5.91s2.28-5.81 5.17-5.81zm.74 2.52a3 3 0 0 0 -3 3.3 3.1 3.1 0 0 0 3 3.38 3.05 3.05 0 0 0 3-3.34 3.05 3.05 0 0 0 -3-3.34z"/><path d="m115.58 56.91a5.5 5.5 0 0 1 -5.7-5.86 5.46 5.46 0 0 1 5.7-5.86 5.32 5.32 0 0 1 5.59 5.62 6.87 6.87 0 0 1 -.08 1.1h-8.3a2.65 2.65 0 0 0 2.73 2.62 2.33 2.33 0 0 0 2.27-1.37h3.1a5.29 5.29 0 0 1 -5.31 3.75zm-2.77-6.91h5.39a2.52 2.52 0 0 0 -2.7-2.44 2.64 2.64 0 0 0 -2.69 2.44z"/></g><path d="m40.5 44.58a27.27 27.27 0 0 0 -18.77-3.95 17.28 17.28 0 0 0 -.62 4.58c0 .5 0 1 .07 1.5a21.44 21.44 0 0 1 24.82 13.75 17.2 17.2 0 0 0 4.87-3.71 27.16 27.16 0 0 0 -10.37-12.17z" fill="url(#a)"/><path d="m43.47 39.92a32.51 32.51 0 0 1 10.78 11.31 17.15 17.15 0 0 0 1.09-6v-24h-17.12v6.88a17.09 17.09 0 0 0 -13.61 6.75 32.56 32.56 0 0 1 18.86 5.06z" fill="url(#b)"/><path d="m34.35 54.23a16 16 0 0 0 -11.82-2.23 17.1 17.1 0 0 0 5.14 6.63 4.52 4.52 0 0 1 3.63.78 4.47 4.47 0 0 1 1.5 2 17.1 17.1 0 0 0 5.42.88 16.29 16.29 0 0 0 2.53-.19 16.08 16.08 0 0 0 -6.4-7.87z" fill="url(#c)"/></svg>

<svg id="Layer_1" data-name="Layer 1" xmlns="http://www.w3.org/2000/svg" xmlns:xlink="http://www.w3.org/1999/xlink" viewBox="0 0 150 80"><defs><style>.cls-1{fill:#e41446;}.cls-2{fill:url(#linear-gradient);}.cls-3{fill:url(#linear-gradient-2);}.cls-4{fill:url(#linear-gradient-3);}</style><linearGradient id="linear-gradient" x1="26.73" y1="73.65" x2="41.52" y2="35.08" gradientUnits="userSpaceOnUse"><stop offset="0" stop-color="#193154"/><stop offset="1" stop-color="#e51947"/></linearGradient><linearGradient id="linear-gradient-2" x1="27.57" y1="73.97" x2="42.36" y2="35.4" xlink:href="#linear-gradient"/><linearGradient id="linear-gradient-3" x1="25.48" y1="73.17" x2="40.26" y2="34.6" xlink:href="#linear-gradient"/></defs><path class="cls-1" d="M68.18,25.76a4.66,4.66,0,0,1,3.71,1.76V22.13H74.8V37.29H71.89V35.61a4.29,4.29,0,0,1-3.73,1.87c-2.89,0-5.19-2.36-5.19-5.9S65.27,25.76,68.18,25.76Zm.72,2.52a3,3,0,0,0-3,3.3,3.11,3.11,0,0,0,3,3.38,3.06,3.06,0,0,0,3-3.34A3.06,3.06,0,0,0,68.9,28.28Z"/><path class="cls-1" d="M77.3,22.91a1.76,1.76,0,1,1,1.76,1.68A1.68,1.68,0,0,1,77.3,22.91Zm.31,3h2.86V37.29H77.61Z"/><path class="cls-1" d="M87.75,25.76a4.46,4.46,0,0,1,3.75,1.8V25.94h2.89V37.38c0,3.07-1.89,5.51-5.62,5.51-3.19,0-5.43-1.6-5.71-4.2H85.9a2.68,2.68,0,0,0,2.79,1.7c1.58,0,2.81-.9,2.81-3V35.61a4.47,4.47,0,0,1-3.75,1.87c-2.89,0-5.19-2.36-5.19-5.9S84.86,25.76,87.75,25.76Zm.74,2.52a3,3,0,0,0-3,3.3,3.11,3.11,0,0,0,3,3.38,3.06,3.06,0,0,0,3-3.34A3.06,3.06,0,0,0,88.49,28.28Z"/><path class="cls-1" d="M96.89,22.91a1.76,1.76,0,1,1,1.76,1.68A1.68,1.68,0,0,1,96.89,22.91Zm.3,3h2.87V37.29H97.19Z"/><path class="cls-1" d="M103.34,28.3H102V25.94h1.35V23.13h2.89v2.81h2.54V28.3h-2.54v5.49c0,.76.31,1.09,1.21,1.09h1.33v2.41H107c-2.17,0-3.63-.92-3.63-3.52Z"/><path class="cls-1" d="M115.29,25.76a4.51,4.51,0,0,1,3.75,1.8V25.94h2.89V37.29H119V35.63a4.47,4.47,0,0,1-3.77,1.85c-2.87,0-5.17-2.36-5.17-5.9S112.4,25.76,115.29,25.76Zm.74,2.52a3,3,0,0,0-3,3.3A3.11,3.11,0,0,0,116,35a3.06,3.06,0,0,0,3-3.34A3.06,3.06,0,0,0,116,28.28Z"/><path class="cls-1" d="M124.74,22.13h2.86V37.29h-2.86Z"/><path class="cls-1" d="M68.06,56.91c-2.85,0-4.84-1.66-5-3.77H66A1.88,1.88,0,0,0,68,54.66c1.12,0,1.74-.51,1.74-1.17,0-2-6.42-.74-6.42-4.9,0-1.88,1.68-3.4,4.49-3.4s4.41,1.5,4.57,3.75H69.67a1.68,1.68,0,0,0-1.9-1.47c-1.07,0-1.62.43-1.62,1.08,0,2.07,6.29.78,6.37,4.94C72.52,55.44,70.82,56.91,68.06,56.91Z"/><path class="cls-1" d="M75.33,47.73H74V45.37h1.35v-2.8h2.89v2.8h2.54v2.36H78.22v5.49c0,.76.31,1.09,1.21,1.09h1.33v2.42H79c-2.17,0-3.63-.92-3.63-3.53Z"/><path class="cls-1" d="M87.28,45.19A4.51,4.51,0,0,1,91,47V45.37h2.89V56.73H91V55.07a4.49,4.49,0,0,1-3.77,1.84c-2.87,0-5.17-2.35-5.17-5.9S84.39,45.19,87.28,45.19ZM88,47.71A3,3,0,0,0,85,51a3.11,3.11,0,0,0,3,3.38,3.06,3.06,0,0,0,3-3.34A3.06,3.06,0,0,0,88,47.71Z"/><path class="cls-1" d="M101.17,45.19a4.44,4.44,0,0,1,3.75,1.8V45.37h2.89V56.81c0,3.07-1.88,5.51-5.61,5.51-3.2,0-5.43-1.6-5.72-4.2h2.85a2.65,2.65,0,0,0,2.78,1.7c1.58,0,2.81-.9,2.81-3V55.05a4.48,4.48,0,0,1-3.75,1.86C98.28,56.91,96,54.56,96,51S98.28,45.19,101.17,45.19Zm.74,2.52a3,3,0,0,0-3,3.3,3.1,3.1,0,0,0,3,3.38,3.05,3.05,0,0,0,3-3.34A3.05,3.05,0,0,0,101.91,47.71Z"/><path class="cls-1" d="M115.58,56.91a5.5,5.5,0,0,1-5.7-5.86,5.46,5.46,0,0,1,5.7-5.86,5.32,5.32,0,0,1,5.59,5.62,6.87,6.87,0,0,1-.08,1.1h-8.3a2.65,2.65,0,0,0,2.73,2.62,2.33,2.33,0,0,0,2.27-1.37h3.1A5.29,5.29,0,0,1,115.58,56.91ZM112.81,50h5.39a2.52,2.52,0,0,0-2.7-2.44A2.64,2.64,0,0,0,112.81,50Z"/><path class="cls-2" d="M40.5,44.58a27.27,27.27,0,0,0-18.77-3.95,17.28,17.28,0,0,0-.62,4.58c0,.5,0,1,.07,1.5A21.44,21.44,0,0,1,46,60.46a17.2,17.2,0,0,0,4.87-3.71A27.16,27.16,0,0,0,40.5,44.58Z"/><path class="cls-3" d="M43.47,39.92A32.51,32.51,0,0,1,54.25,51.23a17.15,17.15,0,0,0,1.09-6v-24H38.22v6.88a17.09,17.09,0,0,0-13.61,6.75A32.56,32.56,0,0,1,43.47,39.92Z"/><path class="cls-4" d="M34.35,54.23A16,16,0,0,0,22.53,52a17.1,17.1,0,0,0,5.14,6.63,4.52,4.52,0,0,1,3.63.78h0a4.47,4.47,0,0,1,1.5,2,17.1,17.1,0,0,0,5.42.88,16.29,16.29,0,0,0,2.53-.19A16.08,16.08,0,0,0,34.35,54.23Z"/></svg>
